X:8
T:Ha bemegyek, ha bemegyek a harkányi bálba
M:4/4
L:1/4
K:F
d d A c | B A G D | A>G F<E | D2 D z |
d d A c | B A G D | A>G F<E | D2 D z |
f f e2 | f<d c2 | f f e d | A2 c2 |
d d/d/ A c/c/ | B A G D/D/ | A>G F<E | D2 D z |

